packages/ui/assets/svg/upcoming_reef.svg

<svg class="icon-size" width="28" height="30" viewBox="0 0 28 30" fill="none" xmlns="http://www.w3.org/2000/svg">
<g id="reef">
<path id="Vector" d="M27.3826 20.0738V9.92617C27.3826 8.2349 26.4966 6.62416 24.9664 5.73826L16.1074 0.66443C14.6577 -0.221476 12.7248 -0.221476 11.2752 0.66443L2.41611 5.73826C0.885906 6.62416 0 8.2349 0 9.92617V20.0738C0 21.7651 0.885906 23.3758 2.41611 24.2617L11.2752 29.3356C12.7248 30.2215 14.6577 30.2215 16.1074 29.3356L24.9664 24.2617C26.4161 23.3758 27.3826 21.7651 27.3826 20.0738Z" fill="url(#paint0_linear_211_68)"></path>
<path id="Vector_2" d="M13.6487 17.187C13.6327 17.2356 13.6247 17.2761 13.6167 17.3246C13.8887 18.6763 14.3846 19.9147 15.3045 20.9426C15.6244 21.315 16.0883 21.5173 16.5683 21.5092C18.0241 21.5173 19.2079 20.9103 20.1758 19.8419C20.3357 19.6557 20.5037 19.4776 20.6877 19.3157C20.9197 19.1377 21.1996 19.081 21.4636 19.251C21.7276 19.421 21.7675 19.6638 21.7356 19.9471C21.6876 20.3356 21.5116 20.6998 21.2476 20.9831C20.1438 22.1567 18.864 23.0794 17.2722 23.4761C15.8244 23.8403 14.6406 23.4356 13.6647 22.3348C12.9768 21.5335 12.4329 20.627 12.0409 19.6395C11.769 19.0082 11.553 18.3607 11.313 17.7293C11.265 17.6079 11.217 17.4784 11.137 17.2518C11.0171 17.5594 10.9291 17.7698 10.8491 17.9802C10.4092 19.162 9.99321 20.3437 9.52928 21.5092C9.28131 22.1648 8.90536 22.7638 8.43343 23.2818C8.06548 23.6784 7.63354 23.9131 7.08162 23.8484C6.4977 23.7674 6.10576 23.3708 6.04977 22.7719C6.00177 22.3024 6.09776 21.833 6.32973 21.4202C6.91365 20.3437 7.48157 19.2591 8.06548 18.1826C8.98535 16.4909 9.89722 14.7993 10.8491 13.1319C11.297 12.4035 11.777 11.7074 12.2969 11.0356C12.4889 10.8009 12.7208 10.5904 12.9688 10.4205C13.1928 10.2343 13.5127 10.21 13.7527 10.3719C13.9926 10.5014 14.1206 10.7766 14.0646 11.0518C14.0326 11.3755 13.9606 11.6912 13.8487 11.9988C13.4567 12.9782 13.0248 13.9413 12.6168 14.9045C12.5768 14.9855 12.5448 15.0745 12.4809 15.1959C12.8728 15.2607 13.2807 15.2445 13.6647 15.1473C15.7524 14.7588 17.6401 12.792 17.9601 10.6714C18.1761 9.29539 17.5681 8.19461 16.2963 7.64422C15.6724 7.38521 15.0005 7.2638 14.3286 7.27999C13.4967 7.27999 12.6888 7.32855 11.8809 7.57137C10.6331 7.96798 9.72125 8.75309 9.05734 9.89434C8.76138 10.4043 8.46543 10.9061 8.13747 11.3917C7.9215 11.756 7.56955 12.015 7.16161 12.1121C6.42571 12.2821 5.56984 11.8936 5.64183 10.8575C5.68982 10.1857 5.96978 9.60296 6.35373 9.06876C7.2176 7.85466 8.36144 7.01289 9.67326 6.38965C11.305 5.60453 13.1048 5.2484 14.9045 5.35362C16.2323 5.42646 17.4802 5.75832 18.608 6.48678C20.8237 7.92751 21.2956 10.6876 20.1838 12.7596C19.4079 14.2246 18.2001 15.2283 16.7923 16.0134C15.8164 16.5476 14.7525 16.9523 13.6487 17.187Z" fill="white"></path>
</g>
<defs>
<linearGradient id="paint0_linear_211_68" x1="13.6913" y1="-0.000805369" x2="13.6913" y2="30.033" gradientUnits="userSpaceOnUse">
<stop offset="0.001" stop-color="#A90FE3"></stop>
<stop offset="1" stop-color="#CF3FA7"></stop>
</linearGradient>
</defs>
</svg>

<svg class="icon-size" width="28" height="30" viewBox="0 0 28 30" fill="none" xmlns="http://www.w3.org/2000/svg"><path d="M27.383 20.074V9.926a4.833 4.833 0 0 0-2.417-4.188L16.107.664c-1.45-.885-3.382-.885-4.832 0L2.416 5.738A4.833 4.833 0 0 0 0 9.926v10.148c0 1.691.886 3.302 2.416 4.188l8.86 5.074c1.449.886 3.382.886 4.831 0l8.86-5.074c1.45-.886 2.416-2.497 2.416-4.188Z" fill="url(#paint0_linear_211_68)"/><path d="M13.649 17.187a.858.858 0 0 0-.032.138c.272 1.351.768 2.59 1.688 3.618.32.372.783.574 1.263.566 1.456.008 2.64-.599 3.608-1.667.16-.186.328-.364.512-.526.232-.178.512-.235.776-.065.264.17.303.413.272.696a1.865 1.865 0 0 1-.488 1.036c-1.104 1.174-2.384 2.096-3.976 2.493-1.448.364-2.631-.04-3.607-1.141a9.508 9.508 0 0 1-1.624-2.695c-.272-.632-.488-1.28-.728-1.91-.048-.122-.096-.252-.176-.478-.12.307-.208.518-.288.728-.44 1.182-.856 2.364-1.32 3.53a5.557 5.557 0 0 1-1.096 1.772c-.368.396-.8.631-1.351.566-.584-.08-.976-.477-1.032-1.076-.048-.47.048-.939.28-1.352.584-1.076 1.152-2.16 1.735-3.237.92-1.692 1.832-3.384 2.784-5.051.448-.729.928-1.425 1.448-2.096.192-.235.424-.446.672-.615a.655.655 0 0 1 .784-.05c.24.13.368.406.312.68-.032.325-.104.64-.216.948-.392.98-.824 1.942-1.232 2.905-.04.082-.072.17-.136.292.392.065.8.049 1.184-.049 2.087-.388 3.975-2.355 4.295-4.476.216-1.376-.392-2.476-1.664-3.027a4.83 4.83 0 0 0-1.967-.364c-.832 0-1.64.049-2.448.291-1.248.397-2.16 1.182-2.824 2.323-.296.51-.592 1.012-.92 1.498a1.552 1.552 0 0 1-.975.72c-.736.17-1.592-.218-1.52-1.255.048-.671.328-1.254.712-1.788.864-1.214 2.007-2.056 3.32-2.68a10.633 10.633 0 0 1 5.23-1.035c1.328.072 2.576.404 3.704 1.133 2.216 1.44 2.688 4.2 1.576 6.273-.776 1.465-1.984 2.468-3.392 3.253-.976.535-2.04.94-3.143 1.174Z" fill="#fff"/><defs><linearGradient id="paint0_linear_211_68" x1="13.691" y1="-.001" x2="13.691" y2="30.033" gradientUnits="userSpaceOnUse"><stop offset=".001" stop-color="#A90FE3"/><stop offset="1" stop-color="#CF3FA7"/></linearGradient></defs></svg>
